X: 8783
T: Cuckoo's Nest, The
R: reel
M: 4/4
K: Dmajor
ABc|:dedc dfed|cAB^G A^GAB|=c d =c B =c e d =c|BGAF GEFG|
AFDF ABde|fdAF GEFG|ABAG FDEC|1 DA,B,C DABc:|2 DA,B,C DEFG||
|:AFDF AFDF|ABde fdAF|GE=CE GE=CE|GFGA B=cBG|
AFDF ABde|fdAF GEFG|ABAG FDEC|1 DA,B,C DEFG:|2 DA,B,C DABc||

